ix/grid-5_bold.svg

<svg viewBox="0 0 24 24" fill="none" xmlns="http://www.w3.org/2000/svg" height="1em" width="1em">
  <path d="M8.25 2v20h-.44C4.17 22 2 19.83 2 16.19V7.81C2 4.17 4.17 2 7.81 2h.44ZM22 7.81v3.44H9.75V2h6.44C19.83 2 22 4.17 22 7.81Zm0 4.94v3.44c0 3.64-2.17 5.81-5.81 5.81H9.75v-9.25H22Z" fill="#292D32"/>
</svg>

<svg viewBox="0 0 24 24" fill="none" xmlns="http://www.w3.org/2000/svg" height="1em" width="1em">
  <path d="M8.25 2V22H7.81C4.17 22 2 19.83 2 16.19V7.81C2 4.17 4.17 2 7.81 2H8.25Z" fill="#292D32"/>
  <path d="M22 7.81V11.25H9.75V2H16.19C19.83 2 22 4.17 22 7.81Z" fill="#292D32"/>
  <path d="M22 12.75V16.19C22 19.83 19.83 22 16.19 22H9.75V12.75H22Z" fill="#292D32"/>
</svg>
